static/logos/coinbase-glyph-color.svg

<svg width="50" height="50" viewBox="0 0 50 50" fill="none" xmlns="http://www.w3.org/2000/svg">
<g clip-path="url(#clip0_1_3204)">
<path d="M25 0C38.8086 0 50 11.1914 50 25C50 38.8086 38.8086 50 25 50C11.1914 50 0 38.8086 0 25C0 11.1914 11.1914 0 25 0Z" fill="#0052FF"/>
<path d="M25.0049 33.7891C20.1514 33.7891 16.2158 29.8584 16.2158 25C16.2158 20.1416 20.1514 16.2109 25.0049 16.2109C29.3555 16.2109 32.9688 19.3848 33.6621 23.5352H42.5146C41.7676 14.5117 34.2139 7.42188 25 7.42188C15.293 7.42188 7.42188 15.293 7.42188 25C7.42188 34.707 15.293 42.5781 25 42.5781C34.2139 42.5781 41.7676 35.4883 42.5146 26.4648H33.6572C32.959 30.6152 29.3555 33.7891 25.0049 33.7891Z" fill="white"/>
</g>
<defs>
<clipPath id="clip0_1_3204">
<rect width="50" height="50" fill="white"/>
</clipPath>
</defs>
</svg>

<svg xmlns="http://www.w3.org/2000/svg" width="64" height="64" fill="none" viewBox="0 0 50 50"><g clip-path="url(#a)"><path fill="#0052FF" d="M25 0c13.809 0 25 11.191 25 25S38.809 50 25 50 0 38.809 0 25 11.191 0 25 0Z"/><path fill="#fff" d="M25.005 33.79a8.787 8.787 0 0 1-8.79-8.79 8.787 8.787 0 0 1 8.79-8.79c4.35 0 7.964 3.175 8.657 7.325h8.853C41.768 14.512 34.214 7.422 25 7.422 15.293 7.422 7.422 15.293 7.422 25c0 9.707 7.871 17.578 17.578 17.578 9.214 0 16.768-7.09 17.515-16.113h-8.858c-.698 4.15-4.301 7.324-8.652 7.324Z"/></g><defs><clipPath id="a"><path fill="#fff" d="M0 0h50v50H0z"/></clipPath></defs></svg>
